X: 142
T: Song Concerning War Paint
C: Teton Sioux band 1911-1914
N: Derived from sioux138.krn
O: South Dakota, U.S.A.
N: Teton Sioux Music by Frances Densmore, 1918
Z: transcribed to **kern format by Craig Sapp
L: 1/16
M: 2/4
Q: 1/4=58
K: F clef=bass
%%linebreak <none>
E E [I:setbarnb 1]| 
E4E4 | 
D2> C2 A,2 A, A, | 
D2> D2 A,2 B, A, ||  
[M:3/4]A,2> A,2A,8 ||  
[M:2/4]A,6 ]|:  
B, B, [I:setbarnb 6]| 
B,4B,4 | 
A,2> G,2 E,2 F, F, | 
F,2> F,2 E,2 E, E, | 
D,4A,,2 E, E, | 
E,4E,4 | 
D,2> D,2 A,,2 C, C, | 
D,2> D,2 A,,2 B,, A,, | 
A,,2> A,,2A,,4 | 
A,,8 | 
A,,6 :|]  



